source/images/icon-IH.svg

<svg xmlns="http://www.w3.org/2000/svg" viewBox="0 0 51 45"><path d="M47.7 24.4c.1-.7.1-1.3.1-2C47.8 10.1 37.8.1 25.5.1 19.6.1 13.9 2.4 9.7 6.6c-1.5 1.5-2.9 3.3-3.9 5.2H4.5c-2.2 0-4 1.6-4.3 3.8-.3 2.2 1 4.2 3.1 4.8-.1.7-.1 1.3-.1 2 0 12.3 10 22.3 22.3 22.3 5.9 0 11.6-2.3 15.8-6.5 1.5-1.5 2.9-3.3 3.9-5.2h1.4c2.2 0 4.1-1.6 4.4-3.8.2-2.2-1.2-4.3-3.3-4.8zm-.9-2c0 .6 0 1.2-.1 1.8h-7.8c0-.6.1-1.3.1-1.9 0-3.4-.5-6.7-1.5-9.9h6.7c1.7 3 2.6 6.5 2.6 10zm-14.5 1.8c.2-.4.4-.9.6-1.3.4-.8.7-1.7.7-2.6 0-1.4-.5-2.7-1.5-3.7-.9-1-2.2-1.6-3.6-1.6-1 0-2 .3-2.9.9v-3.7h10.8c1 3.2 1.5 6.6 1.5 10 0 .6 0 1.3-.1 1.9h-5.5zm5.6.5c-.2 2.7-.7 5.3-1.5 7.8H25.5v-1.4c3-2 5.1-4.1 6.4-6.4h6zM44 11.8h-6.6c-1.6-4.7-4.2-8.4-7.3-10.3C35.9 2.9 41 6.6 44 11.8zM25.6 1.1c4.6.3 8.6 4.5 10.7 10.7H25.6V1.1zm-1 10.7H13.9C16 5.6 20 1.4 24.6 1.1v10.7zm0 19.2v1.5H13.8c-1.1-3.3-1.6-6.8-1.6-10.2 0-.6 0-1.1.1-1.7h4.4v.1c0 .2.2 5 7.9 10.3zM12.3 20.1c.1-2.6.6-5.3 1.4-7.8h10.9V16c-.8-.6-1.8-.9-2.9-1-1.4 0-2.7.6-3.6 1.6-.9.9-1.4 2.2-1.5 3.5h-4.3zM10.4 7.3c2.6-2.6 5.8-4.5 9.4-5.5-3 1.9-5.4 5.5-6.9 10H7c.9-1.6 2.1-3.1 3.4-4.5zm-3.7 5h6.1c-.8 2.5-1.3 5.1-1.4 7.8H4.3c.3-2.7 1.1-5.3 2.4-7.8zM.6 16.2c0-2.2 1.7-3.9 3.9-3.9h1.1c-1.2 2.4-2 5-2.3 7.6-1.6-.5-2.7-2-2.7-3.7zm3.6 4.4h7.1v1.7c0 3.5.5 6.9 1.6 10.2H6.7c-2-3.6-2.8-7.8-2.5-11.9zm6.2 16.9A21.3 21.3 0 0 1 7 33h6c1.6 4.7 4.3 8.4 7.5 10.2-3.8-.9-7.3-2.9-10.1-5.7zm14.2 5.9C20.1 43.1 16.2 39 14 33h10.6v10.4zm.5-13.2c-6-4.2-7.2-8-7.4-9.2v-.5h2.1c.1.9.9 1.6 1.8 1.6 1 .1 1.9-.7 1.9-1.7s-.7-1.9-1.7-1.9h-.2c-.9 0-1.7.7-1.8 1.6h-2.2c0-1.1.5-2.1 1.2-2.8.7-.8 1.8-1.3 2.9-1.3 1.2 0 2.2.5 3 1.4l.4.4.4-.4c.8-.9 1.8-1.4 3-1.4 1.1 0 2.1.5 2.9 1.3.8.8 1.2 1.9 1.2 3 0 .8-.2 1.5-.6 2.1-.2.6-.5 1.1-.8 1.7h-2.3c-.2-.9-.9-1.5-1.8-1.5-1 .1-1.8.9-1.7 1.9 0 .9.8 1.7 1.7 1.7 1 0 1.7-.7 1.8-1.7h2c-1 1.7-2.7 3.6-5.8 5.7zm-4.3-9.8c0-.5.4-.9.9-.9s.9.4.8.9c0 .4-.4.8-.8.8-.5.1-.9-.3-.9-.8zm7.1 4.2c0 .5-.4.9-.9.9s-.8-.4-.8-.9c0-.4.4-.8.8-.8.5-.1.9.3.9.8zM25.6 33h10.7c-2.2 6.1-6.1 10.2-10.7 10.5V33zm15 4.5c-3.1 3.1-7 5.1-11.2 5.9 3.4-1.7 6.2-5.5 7.9-10.4H44c-1 1.6-2.1 3.2-3.4 4.5zm3.7-5h-6.8c.8-2.5 1.3-5.1 1.5-7.8h7.8c-.4 2.7-1.2 5.4-2.5 7.8zm6.1-3.4c-.3 1.9-1.9 3.3-3.8 3.3h-1.2c1.2-2.4 2-5 2.3-7.7 1.8.7 2.9 2.5 2.7 4.4z"/></svg>

<?xml version="1.0" encoding="utf-8"?>
<!-- Generator: Adobe Illustrator 23.0.2, SVG Export Plug-In . SVG Version: 6.00 Build 0)  -->
<svg version="1.1" id="Layer_1" xmlns="http://www.w3.org/2000/svg" xmlns:xlink="http://www.w3.org/1999/xlink" x="0px" y="0px"
	 viewBox="0 0 51 45" style="enable-background:new 0 0 51 45;" xml:space="preserve">
<path d="M47.7,24.4L47.7,24.4c0.1-0.7,0.1-1.3,0.1-2c0-12.3-10-22.3-22.3-22.3c-5.9,0-11.6,2.3-15.8,6.5c-1.5,1.5-2.9,3.3-3.9,5.2
	H4.5c-2.2,0-4,1.6-4.3,3.8c-0.3,2.2,1,4.2,3.1,4.8c-0.1,0.7-0.1,1.3-0.1,2c0,12.3,10,22.3,22.3,22.3c5.9,0,11.6-2.3,15.8-6.5
	c1.5-1.5,2.9-3.3,3.9-5.2h1.4c2.2,0,4.1-1.6,4.4-3.8C51.2,27,49.8,24.9,47.7,24.4z M46.8,22.4c0,0.6,0,1.2-0.1,1.8l0,0v0h-7.8
	c0-0.6,0.1-1.3,0.1-1.9c0-3.4-0.5-6.7-1.5-9.9h6.7C45.9,15.4,46.8,18.9,46.8,22.4z M32.3,24.2c0.2-0.4,0.4-0.9,0.6-1.3
	c0.4-0.8,0.7-1.7,0.7-2.6c0-1.4-0.5-2.7-1.5-3.7c-0.9-1-2.2-1.6-3.6-1.6c-1,0-2,0.3-2.9,0.9v-3.7h10.8c1,3.2,1.5,6.6,1.5,10
	c0,0.6,0,1.3-0.1,1.9v0H32.3z M37.9,24.7c-0.2,2.7-0.7,5.3-1.5,7.8l-10.9,0v-1.4c3-2,5.1-4.1,6.4-6.4H37.9z M44,11.8h-6.6
	c-1.6-4.7-4.2-8.4-7.3-10.3C35.9,2.9,41,6.6,44,11.8z M25.6,1.1c4.6,0.3,8.6,4.5,10.7,10.7H25.6V1.1z M24.6,11.8H13.9
	c2.1-6.2,6.1-10.4,10.7-10.7L24.6,11.8z M24.6,31v1.5H13.8c-1.1-3.3-1.6-6.8-1.6-10.2c0-0.6,0-1.1,0.1-1.7h4.4v0.1
	C16.7,20.9,16.9,25.7,24.6,31z M12.3,20.1c0.1-2.6,0.6-5.3,1.4-7.8l0,0h10.9V16c-0.8-0.6-1.8-0.9-2.9-1c-1.4,0-2.7,0.6-3.6,1.6
	c-0.9,0.9-1.4,2.2-1.5,3.5H12.3z M10.4,7.3L10.4,7.3c2.6-2.6,5.8-4.5,9.4-5.5c-3,1.9-5.4,5.5-6.9,10H7C7.9,10.2,9.1,8.7,10.4,7.3z
	 M6.7,12.3h6.1c-0.8,2.5-1.3,5.1-1.4,7.8H4.3C4.6,17.4,5.4,14.8,6.7,12.3L6.7,12.3z M0.6,16.2c0-2.2,1.7-3.9,3.9-3.9h1.1
	c-1.2,2.4-2,5-2.3,7.6C1.7,19.4,0.6,17.9,0.6,16.2z M4.2,20.6L4.2,20.6l7.1,0c0,0.6,0,1.1,0,1.7c0,3.5,0.5,6.9,1.6,10.2H6.7
	C4.7,28.9,3.9,24.7,4.2,20.6z M10.4,37.5C9.1,36.2,7.9,34.6,7,33h6c1.6,4.7,4.3,8.4,7.5,10.2C16.7,42.3,13.2,40.3,10.4,37.5z
	 M24.6,43.4C20.1,43.1,16.2,39,14,33l10.6,0h0V43.4z M25.1,30.2c-6-4.2-7.2-8-7.4-9.2l0-0.4v-0.1h2.1v0c0.1,0.9,0.9,1.6,1.8,1.6
	c1,0.1,1.9-0.7,1.9-1.7s-0.7-1.9-1.7-1.9c-0.1,0-0.1,0-0.2,0c-0.9,0-1.7,0.7-1.8,1.6h-2.2c0-1.1,0.5-2.1,1.2-2.8
	c0.7-0.8,1.8-1.3,2.9-1.3c1.2,0,2.2,0.5,3,1.4l0.4,0.4l0.4-0.4c0.8-0.9,1.8-1.4,3-1.4c1.1,0,2.1,0.5,2.9,1.3c0.8,0.8,1.2,1.9,1.2,3
	c0,0.8-0.2,1.5-0.6,2.1v0c-0.2,0.6-0.5,1.1-0.8,1.7h-2.3c-0.2-0.9-0.9-1.5-1.8-1.5c-1,0.1-1.8,0.9-1.7,1.9c0,0.9,0.8,1.7,1.7,1.7
	c1,0,1.7-0.7,1.8-1.7h2C29.9,26.2,28.2,28.1,25.1,30.2z M20.8,20.4L20.8,20.4c0-0.5,0.4-0.9,0.9-0.9c0.5,0,0.9,0.4,0.8,0.9
	c0,0.4-0.4,0.8-0.8,0.8C21.2,21.3,20.8,20.9,20.8,20.4C20.8,20.4,20.8,20.4,20.8,20.4z M27.9,24.6L27.9,24.6c0,0.5-0.4,0.9-0.9,0.9
	c-0.5,0-0.8-0.4-0.8-0.9c0-0.4,0.4-0.8,0.8-0.8C27.5,23.7,27.9,24.1,27.9,24.6z M25.6,33h10.7c-2.2,6.1-6.1,10.2-10.7,10.5L25.6,33z
	 M40.6,37.5L40.6,37.5c-3.1,3.1-7,5.1-11.2,5.9c3.4-1.7,6.2-5.5,7.9-10.4H44C43,34.6,41.9,36.2,40.6,37.5z M44.3,32.5L44.3,32.5
	l-6.8,0c0.8-2.5,1.3-5.1,1.5-7.8h7.8C46.4,27.4,45.6,30.1,44.3,32.5z M50.4,29.1c-0.3,1.9-1.9,3.3-3.8,3.3v0h-1.2
	c1.2-2.4,2-5,2.3-7.7C49.5,25.4,50.6,27.2,50.4,29.1z"/>
</svg>
